img/rectangle-168-2.svg

<svg fill="none" height="81" viewBox="0 0 298 81" width="298" xmlns="http://www.w3.org/2000/svg"><path d="m.71967 5.25131c-1.197507-1.99962.242995-4.541349 2.57376-4.541349h269.05157c1.055 0 2.032.553819 2.574 1.458649l22.158 36.99999c.568.949.568 2.1337 0 3.0827l-22.158 37c-.542.9048-1.519 1.4587-2.574 1.4587h-269.05157c-2.33077 0-3.771266-2.5418-2.573759-4.5414l20.312029-33.9173c.5683-.949.5683-2.1337 0-3.0827z" fill="#00ba8d"/></svg>

<svg width="298" height="81" viewBox="0 0 298 81" fill="none" xmlns="http://www.w3.org/2000/svg">
<path d="M0.71967 5.25131C-0.477837 3.25169 0.962665 0.709961 3.29343 0.709961H272.345C273.4 0.709961 274.377 1.26378 274.919 2.16861L297.077 39.1686C297.645 40.1176 297.645 41.3023 297.077 42.2513L274.919 79.2513C274.377 80.1561 273.4 80.71 272.345 80.71H3.29343C0.96266 80.71 -0.477836 78.1682 0.719671 76.1686L21.0317 42.2513C21.6 41.3023 21.6 40.1176 21.0317 39.1686L0.71967 5.25131Z" fill="#00BA8D"/>
</svg>
